X: 24011
T: Log Splitter, The
R: jig
M: 6/8
K: Dmajor
f2A BGG|B2G ecc|AGB A<af|ged cde|
f2A BGG|B2G ecc|AGB A<af|gec d2e:|
G2B AAA|BGB g2a|fef AAA|BGB e2c|
G2B AAA|BGB g2a|fef AAA|d<ec d3:|

